src/chrome/browser/resources/tab_strip/alert_indicators/tab_audio_muting_rounded.svg

<svg xmlns="http://www.w3.org/2000/svg" width="12" height="12" viewBox="0 0 12 12"><path d="M8.5 6c0-.98-.57-1.83-1.39-2.24v1.23l1.36 1.36c.02-.11.03-.23.03-.35zm1.39 0c0 .52-.11 1.01-.3 1.47l.84.84a4.988 4.988 0 0 0-3.32-7.18v1.14C8.72 2.75 9.89 4.24 9.89 6zM1.71 1 1 1.71l2.63 2.62H1v3.34h2.22L6 10.44V6.71l2.36 2.36c-.37.29-.79.51-1.25.65v1.15c.77-.18 1.46-.53 2.05-1.01L10.29 11l.71-.71-5-5L1.71 1zM6 1.56 4.84 2.72 6 3.88V1.56z"/></svg>

<svg xmlns="http://www.w3.org/2000/svg" width="12" height="12" viewBox="0 0 12 12"><path d="M 8.5 6 C 8.5 5.02 7.93 4.17 7.11 3.76 L 7.11 4.99 L 8.47 6.35 C 8.49 6.24 8.5 6.12 8.5 6 Z M 9.89 6 C 9.89 6.52 9.78 7.01 9.59 7.47 L 10.43 8.31 C 10.79 7.62 11 6.83 11 6 C 11 3.62 9.34 1.63 7.11 1.13 L 7.11 2.27 C 8.72 2.75 9.89 4.24 9.89 6 Z M 1.71 1 L 1 1.71 L 3.63 4.33 L 1 4.33 L 1 7.67 L 3.22 7.67 L 6 10.44 L 6 6.71 L 8.36 9.07 C 7.99 9.36 7.57 9.58 7.11 9.72 L 7.11 10.87 C 7.88 10.69 8.57 10.34 9.16 9.86 L 10.29 11 L 11 10.29 L 6 5.29 L 1.71 1 Z M 6 1.56 L 4.84 2.72 L 6 3.88 L 6 1.56 Z" /></svg>
